img/gp-btn.svg

<svg width="236" height="70" viewBox="0 0 236 70" fill="none" xmlns="http://www.w3.org/2000/svg">
<path d="M227.259 0H8.74074C3.91336 0 0 3.91751 0 8.75V61.25C0 66.0825 3.91336 70 8.74074 70H227.259C232.087 70 236 66.0825 236 61.25V8.75C236 3.91751 232.087 0 227.259 0Z" fill="black"/>
<path d="M84.5829 40.9638H88.1028C87.5161 37.2165 84.2755 34.6064 80.0572 34.6064C75.0661 34.6064 71.3228 38.2792 71.3228 44.4315C71.3228 50.472 74.8986 54.2194 80.1598 54.2194C84.8808 54.2194 88.261 51.1805 88.261 46.2586V43.9654H80.5228V46.6687H84.9181C84.8622 49.3907 83.0464 51.1152 80.1783 51.1152C76.9844 51.1152 74.796 48.7195 74.796 44.3943C74.796 40.0969 77.0216 37.7106 80.1038 37.7106C82.4038 37.7106 83.9683 38.941 84.5829 40.9638ZM97.6917 54.238C101.882 54.238 104.545 51.283 104.545 46.8552C104.545 42.4179 101.882 39.4537 97.6917 39.4537C93.5014 39.4537 90.8381 42.4179 90.8381 46.8552C90.8381 51.283 93.5014 54.238 97.6917 54.238ZM97.7103 51.5347C95.3916 51.5347 94.2555 49.4652 94.2555 46.8459C94.2555 44.2264 95.3916 42.129 97.7103 42.129C99.9917 42.129 101.128 44.2264 101.128 46.8459C101.128 49.4652 99.9917 51.5347 97.7103 51.5347ZM113.645 54.238C117.836 54.238 120.499 51.283 120.499 46.8552C120.499 42.4179 117.836 39.4537 113.645 39.4537C109.455 39.4537 106.792 42.4179 106.792 46.8552C106.792 51.283 109.455 54.238 113.645 54.238ZM113.664 51.5347C111.345 51.5347 110.209 49.4652 110.209 46.8459C110.209 44.2264 111.345 42.129 113.664 42.129C115.945 42.129 117.081 44.2264 117.081 46.8459C117.081 49.4652 115.945 51.5347 113.664 51.5347ZM129.58 59.626C133.445 59.626 136.294 57.8548 136.294 54.1914V39.6401H132.97V42.0079H132.783C132.271 40.9732 131.2 39.4537 128.677 39.4537C125.371 39.4537 122.773 42.0452 122.773 46.7525C122.773 51.4229 125.371 53.7533 128.668 53.7533C131.117 53.7533 132.262 52.4389 132.783 51.3855H132.951V54.0982C132.951 56.2049 131.554 57.0717 129.636 57.0717C127.606 57.0717 126.712 56.1117 126.302 55.2727L123.267 56.009C123.881 58.0132 125.939 59.626 129.58 59.626ZM129.608 51.1058C127.383 51.1058 126.209 49.372 126.209 46.734C126.209 44.1332 127.364 42.2222 129.608 42.2222C131.778 42.2222 132.97 44.0214 132.97 46.734C132.97 49.4652 131.759 51.1058 129.608 51.1058ZM143.12 34.8674H139.749V53.9583H143.12V34.8674ZM152.918 54.238C156.251 54.238 158.543 52.6067 159.138 50.1178L155.99 49.7636C155.534 50.9753 154.417 51.6092 152.964 51.6092C150.785 51.6092 149.343 50.1737 149.314 47.7221H159.278V46.6874C159.278 41.663 156.261 39.4537 152.742 39.4537C148.644 39.4537 145.972 42.4646 145.972 46.8831C145.972 51.3762 148.607 54.238 152.918 54.238ZM149.324 45.4476C149.426 43.6205 150.776 42.0824 152.788 42.0824C154.724 42.0824 156.028 43.4993 156.047 45.4476H149.324ZM168.784 53.9583H172.238V47.5077H175.889C180.292 47.5077 182.658 44.8604 182.658 41.1876C182.658 37.5427 180.32 34.8674 175.935 34.8674H168.784V53.9583ZM172.238 44.6645V37.7571H175.403C177.992 37.7571 179.139 39.1554 179.139 41.1876C179.139 43.2197 177.992 44.6645 175.422 44.6645H172.238ZM188.88 34.8674H185.509V53.9583H188.88V34.8674ZM196.463 54.2474C198.706 54.2474 200.048 53.194 200.663 51.9915H200.773V53.9583H204.015V44.3756C204.015 40.5909 200.932 39.4537 198.204 39.4537C195.197 39.4537 192.886 40.796 192.142 43.4061L195.29 43.8535C195.625 42.8748 196.575 42.0359 198.223 42.0359C199.787 42.0359 200.644 42.8375 200.644 44.2451V44.3009C200.644 45.2704 199.628 45.3171 197.105 45.5873C194.33 45.8857 191.676 46.7154 191.676 49.9406C191.676 52.7558 193.734 54.2474 196.463 54.2474ZM197.338 51.7678C195.932 51.7678 194.926 51.1245 194.926 49.8848C194.926 48.589 196.053 48.0483 197.561 47.8339C198.445 47.7127 200.215 47.489 200.652 47.1348V48.8221C200.652 50.416 199.368 51.7678 197.338 51.7678ZM208.987 59.3276C211.613 59.3276 213.131 57.976 213.941 55.6921L219.687 39.6588L216.083 39.6401L212.777 50.4534H212.627L209.332 39.6401H205.756L210.943 54.2565L210.653 55.0303C210.03 56.6616 209.044 56.7735 207.572 56.3447L206.79 58.9734C207.246 59.1599 208.065 59.3276 208.987 59.3276Z" fill="white"/>
<path d="M78.4515 18.9583H79.7759C79.3827 16.9076 77.6651 15.4989 75.4303 15.4989C72.7144 15.4989 70.795 17.5911 70.795 20.9469C70.795 24.3028 72.6988 26.395 75.513 26.395C78.0376 26.395 79.8379 24.7119 79.8379 22.0863V20.9469H75.8028V22.0863H78.5963C78.56 23.9921 77.3082 25.1936 75.513 25.1936C73.5472 25.1936 72.0367 23.702 72.0367 20.9469C72.0367 18.1918 73.5472 16.7004 75.4303 16.7004C76.9615 16.7004 78.0013 17.5652 78.4515 18.9583ZM82.0352 26.25H88.5121V25.1107H83.3182V21.5063H88.0984V20.3669H83.3182V16.7832H88.4293V15.644H82.0352V26.25ZM90.1625 16.7832H93.494V26.25H94.777V16.7832H98.1085V15.644H90.1625V16.7832ZM105.469 15.644H104.186V26.25H105.469V15.644ZM107.462 16.7832H110.793V26.25H112.076V16.7832H115.408V15.644H107.462V16.7832ZM130.425 20.9469C130.425 17.5911 128.459 15.4989 125.748 15.4989C123.037 15.4989 121.071 17.5911 121.071 20.9469C121.071 24.3028 123.037 26.395 125.748 26.395C128.459 26.395 130.425 24.3028 130.425 20.9469ZM129.183 20.9469C129.183 23.702 127.672 25.1936 125.748 25.1936C123.824 25.1936 122.313 23.702 122.313 20.9469C122.313 18.1918 123.824 16.7004 125.748 16.7004C127.672 16.7004 129.183 18.1918 129.183 20.9469ZM140.983 15.644H139.721V23.9921H139.617L133.824 15.644H132.582V26.25H133.865V17.9226H133.968L139.742 26.25H140.983V15.644Z" fill="white"/>
<path d="M38.0374 35.0037L17.5536 54.7491C16.5943 54.0928 16.0249 53.0012 16.0349 51.8382V18.169C16.0249 17.0059 16.5943 15.9144 17.5536 15.2581L38.0374 35.0037Z" fill="#00D4FF"/>
<path d="M45.2048 28.1066L38.0372 35.0037L17.5535 15.2581C17.6307 15.1983 17.7111 15.1426 17.7943 15.0913C18.8768 14.4345 20.229 14.4133 21.3317 15.0357L45.2048 28.1066Z" fill="#00F076"/>
<path d="M53.891 35.0036C53.9044 36.3166 53.1918 37.5292 52.039 38.1555L45.2049 41.9005L38.0374 35.0036L45.2049 28.1066L52.039 31.8517C53.1918 32.478 53.9044 33.6907 53.891 35.0036Z" fill="#FFCF00"/>
<path d="M45.2048 41.9006L21.3317 54.9716C20.2267 55.5844 18.8794 55.5631 17.7943 54.9159C17.7111 54.8647 17.6307 54.809 17.5535 54.7491L38.0374 35.0037L45.2048 41.9006Z" fill="#FB3746"/>
</svg>

<svg width="236" height="70" fill="none" xmlns="http://www.w3.org/2000/svg"><path d="M227.259 0H8.741C3.913 0 0 3.918 0 8.75v52.5C0 66.082 3.913 70 8.74 70h218.52c4.828 0 8.741-3.918 8.741-8.75V8.75c0-4.832-3.913-8.75-8.741-8.75z" fill="#000"/><path d="M84.583 40.964h3.52c-.587-3.747-3.828-6.358-8.046-6.358-4.99 0-8.734 3.673-8.734 9.825 0 6.041 3.576 9.788 8.837 9.788 4.72 0 8.101-3.038 8.101-7.96v-2.294h-7.738v2.704h4.395c-.056 2.722-1.872 4.446-4.74 4.446-3.194 0-5.382-2.396-5.382-6.72 0-4.298 2.226-6.684 5.308-6.684 2.3 0 3.864 1.23 4.479 3.253zm13.109 13.274c4.19 0 6.853-2.955 6.853-7.383 0-4.437-2.663-7.401-6.853-7.401-4.19 0-6.854 2.964-6.854 7.401 0 4.428 2.663 7.383 6.854 7.383zm.018-2.703c-2.318 0-3.454-2.07-3.454-4.69 0-2.619 1.136-4.716 3.454-4.716 2.282 0 3.418 2.097 3.418 4.717 0 2.62-1.136 4.689-3.418 4.689zm15.935 2.703c4.191 0 6.854-2.955 6.854-7.383 0-4.437-2.663-7.401-6.854-7.401-4.19 0-6.853 2.964-6.853 7.401 0 4.428 2.663 7.383 6.853 7.383zm.019-2.703c-2.319 0-3.455-2.07-3.455-4.69 0-2.619 1.136-4.716 3.455-4.716 2.281 0 3.417 2.097 3.417 4.717 0 2.62-1.136 4.689-3.417 4.689zm15.916 8.091c3.865 0 6.714-1.771 6.714-5.435v-14.55h-3.324v2.367h-.187c-.512-1.035-1.583-2.554-4.106-2.554-3.306 0-5.904 2.591-5.904 7.298 0 4.67 2.598 7.001 5.895 7.001 2.449 0 3.594-1.314 4.115-2.367h.168v2.712c0 2.107-1.397 2.974-3.315 2.974-2.03 0-2.924-.96-3.334-1.8l-3.035.737c.614 2.004 2.672 3.617 6.313 3.617zm.028-8.52c-2.225 0-3.399-1.734-3.399-4.372 0-2.6 1.155-4.512 3.399-4.512 2.17 0 3.362 1.8 3.362 4.512 0 2.731-1.211 4.372-3.362 4.372zm13.512-16.239h-3.371v19.091h3.371v-19.09zm9.798 19.371c3.333 0 5.625-1.631 6.22-4.12l-3.148-.354c-.456 1.211-1.573 1.845-3.026 1.845-2.179 0-3.621-1.435-3.65-3.887h9.964v-1.035c0-5.024-3.017-7.233-6.536-7.233-4.098 0-6.77 3.01-6.77 7.43 0 4.492 2.635 7.354 6.946 7.354zm-3.594-8.79c.102-1.828 1.452-3.366 3.464-3.366 1.936 0 3.24 1.417 3.259 3.366h-6.723zm19.46 8.51h3.454v-6.45h3.651c4.403 0 6.769-2.648 6.769-6.32 0-3.645-2.338-6.32-6.723-6.32h-7.151v19.09zm3.454-9.294v-6.907h3.165c2.589 0 3.736 1.398 3.736 3.43 0 2.033-1.147 3.477-3.717 3.477h-3.184zm16.642-9.797h-3.371v19.091h3.371v-19.09zm7.583 19.38c2.243 0 3.585-1.053 4.2-2.255h.11v1.966h3.242v-9.582c0-3.785-3.083-4.922-5.811-4.922-3.007 0-5.318 1.342-6.062 3.952l3.148.447c.335-.978 1.285-1.817 2.933-1.817 1.564 0 2.421.801 2.421 2.21v.055c0 .97-1.016 1.016-3.539 1.286-2.775.299-5.429 1.128-5.429 4.354 0 2.815 2.058 4.306 4.787 4.306zm.875-2.48c-1.406 0-2.412-.643-2.412-1.882 0-1.296 1.127-1.837 2.635-2.051.884-.121 2.654-.345 3.091-.7v1.688c0 1.594-1.284 2.946-3.314 2.946zm11.649 7.56c2.626 0 4.144-1.351 4.954-3.635l5.746-16.033-3.604-.019-3.306 10.813h-.15l-3.295-10.813h-3.576l5.187 14.617-.29.773c-.623 1.632-1.609 1.743-3.081 1.315l-.782 2.628c.456.187 1.275.355 2.197.355zM78.451 18.958h1.325c-.393-2.05-2.11-3.46-4.346-3.46-2.716 0-4.635 2.093-4.635 5.449s1.904 5.448 4.718 5.448c2.525 0 4.325-1.683 4.325-4.309v-1.14h-4.035v1.14h2.793c-.036 1.906-1.288 3.108-3.083 3.108-1.966 0-3.476-1.492-3.476-4.247s1.51-4.247 3.393-4.247c1.531 0 2.571.865 3.021 2.258zm3.584 7.292h6.477v-1.14h-5.194v-3.604h4.78v-1.14h-4.78v-3.583h5.111v-1.139h-6.394V26.25zm8.127-9.467h3.332v9.467h1.283v-9.467h3.332v-1.139h-7.947v1.14zm15.307-1.139h-1.283V26.25h1.283V15.644zm1.993 1.14h3.331v9.466h1.283v-9.467h3.332v-1.139h-7.946v1.14zm22.963 4.163c0-3.356-1.966-5.448-4.677-5.448-2.711 0-4.677 2.092-4.677 5.448 0 3.356 1.966 5.448 4.677 5.448 2.711 0 4.677-2.092 4.677-5.448zm-1.242 0c0 2.755-1.511 4.247-3.435 4.247-1.924 0-3.435-1.492-3.435-4.247s1.511-4.247 3.435-4.247c1.924 0 3.435 1.492 3.435 4.247zm11.8-5.303h-1.262v8.348h-.104l-5.793-8.348h-1.242V26.25h1.283v-8.327h.103l5.774 8.327h1.241V15.644z" fill="#fff"/><path d="M38.037 35.004L17.554 54.749a3.49 3.49 0 01-1.52-2.91v-33.67a3.49 3.49 0 011.52-2.91l20.483 19.745z" fill="#00D4FF"/><path d="M45.205 28.107l-7.168 6.897-20.483-19.746c.077-.06.157-.115.24-.167a3.501 3.501 0 013.538-.055l23.873 13.07z" fill="#00F076"/><path d="M53.891 35.004a3.545 3.545 0 01-1.852 3.152L45.205 41.9l-7.168-6.897 7.168-6.897 6.834 3.745a3.546 3.546 0 011.852 3.152z" fill="#FFCF00"/><path d="M45.205 41.9L21.332 54.973a3.547 3.547 0 01-3.538-.056 2.708 2.708 0 01-.24-.167l20.483-19.745 7.168 6.897z" fill="#FB3746"/></svg>
